svgs/sharp-regular/castle.svg

<svg xmlns="http://www.w3.org/2000/svg" viewBox="0 0 640 512"><!--! Font Awesome Pro 6.6.0 by @fontawesome - https://fontawesome.com License - https://fontawesome.com/license (Commercial License) Copyright 2024 Fonticons, Inc. --><path d="M176 24l0-24L128 0l0 24 0 200-80 0 0-40 0-24L0 160l0 24L0 488l0 24 24 0 592 0 24 0 0-24 0-304 0-24-48 0 0 24 0 40-80 0 0-200 0-24L464 0l0 24 0 40-64 0 0-40 0-24L352 0l0 24 0 40-64 0 0-40 0-24L240 0l0 24 0 40-64 0 0-40zm0 88l288 0 0 112-288 0 0-112zM48 272l544 0 0 192-208 0 0-80c0-35.3-28.7-64-64-64s-64 28.7-64 64l0 80L48 464l0-192z"/></svg>

<svg xmlns="http://www.w3.org/2000/svg" viewBox="0 0 640 512"><!--! Font Awesome Pro 6.4.2 by @fontawesome - https://fontawesome.com License - https://fontawesome.com/license (Commercial License) Copyright 2023 Fonticons, Inc. --><path d="M176 24V0H128V24 224H48V184 160H0v24V488v24H24 616h24V488 184 160H592v24 40H512V24 0H464V24 64H400V24 0H352V24 64H288V24 0H240V24 64H176V24zm0 88H464V224H176V112zM48 272H592V464H384V384c0-35.3-28.7-64-64-64s-64 28.7-64 64v80H48V272z"/></svg>
